images/linkedin.svg

<svg width="45" height="45" viewBox="0 0 45 45" fill="none" xmlns="http://www.w3.org/2000/svg">
<path d="M22.5 0C10.0734 0 0 10.0734 0 22.5C0 34.9266 10.0734 45 22.5 45C34.9266 45 45 34.9266 45 22.5C45 10.0734 34.9266 0 22.5 0ZM16.9922 31.8258H12.4359V17.1633H16.9922V31.8258ZM14.6859 15.3633C13.2469 15.3633 12.3164 14.3437 12.3164 13.0828C12.3164 11.7961 13.275 10.807 14.7445 10.807C16.2141 10.807 17.1141 11.7961 17.1422 13.0828C17.1422 14.3437 16.2141 15.3633 14.6859 15.3633ZM33.6328 31.8258H29.0766V23.7C29.0766 21.8086 28.4156 20.5242 26.768 20.5242C25.5094 20.5242 24.7617 21.3938 24.4313 22.2305C24.3094 22.5281 24.2789 22.95 24.2789 23.3695V31.8234H19.7203V21.8391C19.7203 20.0086 19.6617 18.4781 19.6008 17.1609H23.5594L23.768 19.1977H23.8594C24.4594 18.2414 25.9289 16.8305 28.3875 16.8305C31.3852 16.8305 33.6328 18.8391 33.6328 23.1562V31.8258Z" fill="black"/>
</svg>

<svg width="45" height="45" fill="none" xmlns="http://www.w3.org/2000/svg"><path d="M22.5 0C10.073 0 0 10.073 0 22.5S10.073 45 22.5 45 45 34.927 45 22.5 34.927 0 22.5 0zm-5.508 31.826h-4.556V17.163h4.556v14.663zm-2.306-16.463c-1.44 0-2.37-1.02-2.37-2.28 0-1.287.959-2.276 2.428-2.276 1.47 0 2.37.99 2.398 2.276 0 1.26-.928 2.28-2.456 2.28zm18.947 16.463h-4.556V23.7c0-1.891-.661-3.176-2.309-3.176-1.259 0-2.006.87-2.337 1.706-.122.298-.152.72-.152 1.14v8.453H19.72V21.84c0-1.83-.058-3.36-.12-4.678h3.96l.208 2.037h.091c.6-.957 2.07-2.367 4.528-2.367 2.998 0 5.246 2.008 5.246 6.325v8.67z" fill="#000"/></svg>
